assets/build/img/contact-info.svg

<svg width="20" height="20" viewBox="0 0 20 20" fill="none" xmlns="http://www.w3.org/2000/svg">
<path d="M7.64572 14.5067C7.12319 13.9787 6.41113 13.6816 5.66807 13.6816C4.92518 13.6816 4.21312 13.9787 3.6906 14.5067C3.22868 14.9775 2.95069 15.6053 2.88342 16.2915H8.45289C8.39894 15.6209 8.11359 14.99 7.64572 14.5067Z" fill="#00642F"/>
<path d="M7.20468 9.49949C7.34237 10.3478 6.76641 11.1471 5.91807 11.2848C5.06973 11.4223 4.27044 10.8464 4.13276 9.99802C3.99508 9.14969 4.57121 8.3504 5.41954 8.21272C6.26771 8.07503 7.067 8.65116 7.20468 9.49949Z" fill="#00642F"/>
<path d="M18.5202 1.25586H1.47982C0.662836 1.25674 0.000875839 1.9187 0 2.73568V4.74013H20V2.73568C19.9991 1.9187 19.3372 1.25674 18.5202 1.25586Z" fill="#00642F"/>
<path d="M0 17.2651C0.000875839 18.082 0.662836 18.744 1.47982 18.7449H18.5202C19.3372 18.744 19.9991 18.082 20 17.2651V5.36816H0V17.2651ZM11.7443 8.0139H17.417C17.5904 8.0139 17.7309 8.15456 17.7309 8.32781C17.7309 8.50122 17.5904 8.64171 17.417 8.64171H11.7443C11.5711 8.64171 11.4304 8.50122 11.4304 8.32781C11.4304 8.15456 11.5711 8.0139 11.7443 8.0139ZM11.7443 10.6237H17.417C17.5904 10.6237 17.7309 10.7644 17.7309 10.9376C17.7309 11.1111 17.5904 11.2515 17.417 11.2515H11.7443C11.5711 11.2515 11.4304 11.1111 11.4304 10.9376C11.4304 10.7644 11.5711 10.6237 11.7443 10.6237ZM11.7443 13.2337H17.417C17.5904 13.2337 17.7309 13.3742 17.7309 13.5476C17.7309 13.7209 17.5904 13.8615 17.417 13.8615H11.7443C11.5711 13.8615 11.4304 13.7209 11.4304 13.5476C11.4304 13.3742 11.5711 13.2337 11.7443 13.2337ZM11.7443 15.8436H17.417C17.5904 15.8436 17.7309 15.9841 17.7309 16.1575C17.7309 16.3307 17.5904 16.4714 17.417 16.4714H11.7443C11.5711 16.4714 11.4304 16.3307 11.4304 16.1575C11.4304 15.9841 11.5711 15.8436 11.7443 15.8436ZM5.66809 7.56547C6.87307 7.5667 7.84876 8.54449 7.84753 9.74929C7.84631 10.9543 6.86852 11.93 5.66371 11.9287C4.45873 11.9275 3.48304 10.9497 3.48427 9.74492C3.4883 8.54116 4.46434 7.56687 5.66809 7.56547ZM3.24219 14.0677C3.88295 13.4192 4.75652 13.0544 5.66809 13.0544C6.57984 13.0544 7.4534 13.4192 8.09417 14.0677C8.73984 14.7269 9.0942 15.6283 9.0942 16.6059C9.09473 16.6893 9.0618 16.7693 9.00277 16.8284C8.94374 16.8874 8.86368 16.9203 8.7803 16.9198H2.55605C2.47267 16.9203 2.39245 16.8874 2.33359 16.8284C2.27456 16.7693 2.24163 16.6893 2.24215 16.6059C2.24215 15.6283 2.59634 14.7269 3.24219 14.0677Z" fill="#00642F"/>
</svg>

<svg width="20" height="20" viewBox="0 0 20 20" fill="none" xmlns="http://www.w3.org/2000/svg"><path d="M7.646 14.507a2.782 2.782 0 00-3.955 0 2.936 2.936 0 00-.808 1.784h5.57a2.9 2.9 0 00-.807-1.784zM7.205 9.5a1.556 1.556 0 11-3.072.498A1.556 1.556 0 017.205 9.5zM18.52 1.256H1.48A1.48 1.48 0 000 2.736V4.74h20V2.736a1.48 1.48 0 00-1.48-1.48z" fill="#00642F"/><path d="M0 17.265c0 .817.663 1.479 1.48 1.48h17.04a1.481 1.481 0 001.48-1.48V5.368H0v11.897zm11.744-9.251h5.673a.314.314 0 010 .628h-5.673a.314.314 0 010-.628zm0 2.61h5.673a.314.314 0 010 .627h-5.673a.314.314 0 010-.627zm0 2.61h5.673a.314.314 0 110 .627h-5.673a.314.314 0 010-.627zm0 2.61h5.673a.314.314 0 110 .627h-5.673a.314.314 0 010-.627zM5.668 7.565a2.182 2.182 0 11-.004 4.364 2.182 2.182 0 01.004-4.364zm-2.426 6.503a3.41 3.41 0 014.852 0c.646.659 1 1.56 1 2.538a.312.312 0 01-.314.314H2.556a.312.312 0 01-.314-.314c0-.978.354-1.88 1-2.538z" fill="#00642F"/></svg>
